svg/credit-card.svg

<svg height="1024" width="1024" xmlns="http://www.w3.org/2000/svg">
  <path d="M128 704h128v-64h-128v64z m192 0h128v-64h-128v64z m64-192h-256v64h256v-64z m-128-64h64l128-128h-64l-128 128z m192 128h192v-64h-192v64z m512-384c-32 0-864 0-896 0s-64 32-64 64 0 480 0 512 32 64 64 64 864 0 896 0 64-32 64-64 0-480 0-512-32-64-64-64z m0 256v288s0 32-32 32h-832c-32 0-32-32-32-32v-288h64l128-128h-192v-32s0-32 32-32h832c32 0 32 32 32 32v32h-384l-128 128h512z" />
</svg>

<svg height="1024" width="1024" xmlns="http://www.w3.org/2000/svg">
  <path d="M128 704h128v-64H128V704zM320 704h128v-64H320V704zM384 512H128v64h256V512zM256 448h64l128-128h-64L256 448zM448 576h192v-64H448V576zM960 192H64c-64 0-64 64-64 64v512c0 0 0 64 64 64h896c64 0 64-64 64-64V256C1024 256 1024 192 960 192zM960 448v288c0 0 0 32-32 32H96c-32 0-32-32-32-32V448h64l128-128H64v-32c0 0 0-32 32-32h832c32 0 32 32 32 32v32H576L448 448H960z" />
</svg>
